albertroad.htmlalbertroad.htmlalbertroad.htmlalbertroad.htmlalbertroad.htmlalbertroad.htmlalbertroad.htmlalbertroad.htmlEd Reavy
albertroad.htmlFrom <I>Providence: A Fig for a Kiss</I>
albertroad.htmlalbertroad.html<PRE>T:In Memory of Coleman
T:In Memory of Coleman
M:C|
L:1/8
C:Ed Reavy
R:reel
D:Providence: A Fig for a Kiss
Z:Devin McCabe
K:GDor
DGBd cBGF|D~F3 GFDF|GG,GA (3Bcd ga|(3bag af dgga|
!(3bag ag fddc|BdBG FDCD|FGBd c2Bc|1dgdc BGGF:|2dgdc BGGA||
!BABd ~g3f|e~c3 AcFA|B2ge fdcA|FGAc BGGA|
!B2fB FBfB|DBfd cAFA|GABc dgag|fdcA G3A|
!BABd ~g3f|e~c3 AcFA|B2ge fdcA|FGAc BGGA|
!B2fB FBfB|DBfd cAFA|GABc dbag|fdcA ABBA||

%  ABC2Win Version 2.1 8/25/2001
albertroad.htmlalbertroad.htmlalbertroad.htmlalbertroad.htmlalbertroad.htmlalbertroad.htmlalbertroad.html